!!!!SEGMENT: pl-wnifc--6022-n--003_unicki--polonez.krn
!!!cenid: 18xx:3920
!!!COM: Unicki
!!!COM-rismID: pe50044977
!!!CDT:
!!!CNT:
!!!OTL: Polonez
!!!PDT:
!!!AGN:
!!!SMS-siglum: PL-Wnifc
!!!SMS-shelfmark: 6022/n
!!!SMS-shelfwork: 003 W
!!!SMS-variant:
!!!SMS-altvar:
!!!NIFC-rismSourceID: 1001134343
!!!NIFC-rismChildID: 1001134346
!!!NIFC-islandoraID: nifc:212599
!!!URL-pdf-islandora: https://repozytorium.nifc.pl/islandora/object/nifc%3A212599/datastream/PDF/view
!!!URL-scan: https://polish.musicsources.pl/pl/lokalizacje/galeria/druki-muzyczne/16849 @EN{Scan on Polish Music Sources Website} @PL{Skany w portalu Dziedzictwo Muzyki Polskiej w otwartym dostępie}
!!!ONB-nifc: UWAGA: s. 8-9
!!!AIN: 2 piano
!!!key: D
**kern	**kern	**dynam
*part2	*part1	*part1
*staff2	*staff1	*
*I"Piano	*I"Piano	*
*Ipiano	*Ipiano	*
*ICklav	*ICklav	*
*clefF4	*clefG2	*
*k[f#c#]	*k[f#c#]	*
*D:	*D:	*
*M3/4	*M3/4	*
=1	=1	=1
4.DD/ 4.D	4.d/	f
(8EE/ 8E	(8e/	.
8FF#/L 8F#	8f#/L	.
8GG/J) 8G	8g/J)	.
=2	=2	=2
8DD/L 8D#X	8d#X/L	.
8EE/J 8E	(8.e/J	.
4r	.	.
.	16g/LL)	.
.	16b/	.
.	16a/JJ	.
4r	(16g/LL	.
.	16f#/	.
.	16e/	.
.	16dn/JJ)	.
=3	=3	=3
!LO:TX:a:t=P:problem:mixed beam	!	!
16AA/LL	4.e/ 4.cc#	.
16A\	.	.
16G#X\	.	.
16A\JJ	.	.
16Gn\LL	.	.
16A\	.	.
16F#\	8f#/L 8dd	.
16A\JJ	.	.
16E\LL	8cc#/ 8ee	.
16A\	.	.
16D\	8dd/J 8ff#	.
16A\JJ	.	.
=4	=4	=4
4AA\ 4A	(8dd#X\L 8ff#	.
.	8ee\J) 8gg	.
4AAA/ 4AA	16r	.
.	16ccc#\LL	.
.	(16eee\	.
.	16ccc#\JJ	.
4r	16aa\LL	.
.	16gg\	.
.	16ee\	.
.	16cc#\JJ)	.
*clefG2	*	*
=5||	=5||	=5||
*2\right	*	*
*tremolo	*	*
(8d/L 8f#	4dd\	p
8A/	.	.
8d/ 8f#	16r	.
.	(16ff#\LL	.
8A/	16gg\	.
.	16ff#\JJ	.
8d/ 8f#	16ee\LL	.
.	16dd\	.
8A/J)	16cc#\	.
.	16dd\JJ)	.
!!LO:LB:g=original
=6	=6	=6
8e/L 8g	16cc#\LL	.
.	16ee\	.
8A/	16bb\	.
.	[16aa\JJ	.
8e/ 8g	4aa\]	.
8A/	.	.
8e/ 8g	16aa\LL	.
.	16gg\	.
8A/J	16ee\	.
.	16cc#\JJ	.
=7	=7	=7
8d/L 8f#	4aa\	.
8A/	.	.
8d/ 8f#	16r	.
.	16aa\LL	.
8A/	(16ddd\	.
.	16ccc#\JJ	.
8d/ 8f#	16bb\LL	.
.	16aa\	.
8A/J	16gg\	.
.	16ff#\JJ)	.
=8	=8	=8
*Xtremolo	*	*
8c#/L 8e	(16aa\LL	.
.	16gg#X\	.
8A/	16aa\	.
.	16ggn\JJ	.
8c#/J 8e	4ee\)	.
*clefF4	*	*
8AA\L 8A	.	.
8GG#X\ 8G#X	4r	>]
8AA\J 8A	.	.
=9	=9	=9
8D\ 8d	8dd\L 8ff# 8aa 8ddd	f
8r	(16dd\L	.
.	32ee\L	.
.	32ff#\	.
8r	32gg\	.
.	32aa\	.
.	32bb\	.
.	32ccc#\JJJ)	.
8D\L 8d	8ddd\	.
*	*Xtuplet	*
8AA\ 8A	12ff#\L 12aa 12ddd	.
.	12ee\ 12gg 12ccc#	.
8D\J 8d	.	.
.	12ff#\J 12aa 12ddd	.
=10	=10	=10
8BB\ 8B	8dd\ 8ff# 8bb 8ddd	.
(16BB/LL	8r	.
32C#/L	.	.
32D/JJJ	.	.
32E/LLL	8r	.
32F#/	.	.
32G#X/	.	.
32A#X/JJ	.	.
8B/J)	8dd\ 8ff# 8bb	.
*Xtuplet	*	*
12BB\L 12B	8cc#\L 8ee 8aa#X	.
12FF#\ 12F#	.	.
.	8b\J 8dd 8bb	.
12GG\J 12G#	.	.
*clefG2	*	*
=11	=11	=11
8A/L	8aan\L	.
8e/J 8g	(8.gg\J	.
*tremolo	*	*
8e/L 8g	.	.
.	16ff#\LL)	.
8e/ 8g	16ee\	.
.	16dd\JJ	.
8e/ 8g	16cc#\LL	.
.	16a\	.
8e/J 8g	16b\	.
.	16cc#\JJ	.
!!LO:LB:g=original
=12	=12	=12
8d/L 8f#	(16dd\LL	.
.	16ff#\	.
8A/J 8e 8g	16ee\	.
.	16cc#\JJ)	.
8r	(4cc#\	.
8A/ 8e 8g	.	.
4d/ 4f#	8dd\)	.
.	8r	.
*clefF4	*	*
=13:|!|:	=13:|!|:	=13:|!|:
.	8qqgg#X/	fp
8AA\L 8A	4.aa\	.
8c#\ 8e	.	.
8c#\ 8e	.	.
8c#\ 8e	8ee\L	.
8c#\ 8e	8cc#\	.
8c#\J 8e	8a\J	.
=14	=14	=14
!LO:TX:a:t=P:problem:mixed beam	!	!
8EE/L 8E	(16a#X/LL	fp
.	16b/	.
8G#X\J 8d 8e	16cc#/	.
.	16b/JJ	.
*Xtremolo	*	*
8G#\L 8d 8e	4b/)	.
8G#\ 8d 8e	.	.
8G#\ 8d 8e	4r	.
8G#\J 8d 8e	.	.
=15	=15	=15
.	(16qqee/LL	fp
!LO:TX:a:t=P:problem:mixed beam	!	!
.	16qqgg#X/JJ)	.
8EE/L 8E	4bb\	.
8G\J 8B#X 8e	.	.
8G\L 8B# 8e	16r	.
.	(16aa\LL	.
8G\ 8B# 8e	16gg#\	.
.	16ff#\JJ	.
8G\ 8B# 8e	16ee#X\LL	.
.	16ff#\)	.
8G\J 8B# 8e	16cc#\	.
.	16dd\JJ	.
=16	=16	=16
8AA\L 8A	16cc#\LL	fp
.	16b\	.
8c#\ 8e	16cc#\	.
.	16dd\JJ	.
8c#\ 8e	16ee\LL	.
.	16dd\	.
8c#\ 8e	16ee\	.
.	16ff#\JJ	.
8c#\ 8e	8ee\L	.
8c#\J 8e	8ee\J	.
*clefG2	*	*
=17	=17	=17
(16B/LL 16d	8r	.
16e/	.	.
!	!LO:TX:b:i:t=dolce	!
16B/ 16d	8gg#X\L	.
16e/JJ)	.	.
*tremolo	*	*
(16B/LL 16d	8gg#\	.
16e/	.	.
16B/ 16d	8gg#\J	.
16e/	.	.
16B/ 16d	(16aa\LL	.
16e/	16gg#\	.
16B/ 16d	16ff#\	.
16e/JJ)	16gg#\JJ)	.
=18	=18	=18
!	!LO:TX:a:t=P:problem:przekreślony obiegnik	!
(16A/LL 16c#	8.aasS\L	.
16e/	.	.
16A/ 16c#	.	.
16e/	16bb\Jk	.
16A/ 16c#	4ccc#\	.
16e/	.	.
16A/ 16c#	.	.
16e/	.	.
16A/ 16c#	4r	.
16e/	.	.
16A/ 16c#	.	.
16e/JJ)	.	.
!!LO:LB:g=original
=19	=19	=19
(16A#X/LL 16c#	8r	.
16e/	.	.
16A#/ 16c#	8ff#\L	.
16e/	.	.
16A#/ 16c#	8ff#\	.
16e/	.	.
16A#/ 16c#	8ff#\J	.
16e/	.	.
16A#/ 16c#	(16ggn\LL	.
16e/	16ff#\	.
16A#/ 16c#	16ee#X\	.
16e/JJ)	16ff#\JJ)	.
=20	=20	=20
!	!LO:TX:t=P:problem:przekreślony obiegnik	!
(16B/LL 16d	8.ddsS\L	.
16e/	.	.
16B/ 16d	.	.
16e/	16ee\Jk	.
16B/ 16d	(16ff#\LL	.
16e/	16ff#\	.
16B/ 16d	16gg\	.
16e/	16ff#\JJ	.
16B/ 16d	16ee\LL	.
16e/	16dd\)	.
16B/ 16d	16cc#\	.
16e/JJ)	16b\JJ	.
=21	=21	=21
(16e/LL	8a#X/L	<
16g/	.	.
16d/	8b/	.
16f#/JJ	.	.
16c#/LL	(8a#X/ 8cc#	[
16e/	.	.
16B/	8b/ 8dd	.
16d/JJ	.	.
16A#X/LL)	8cc#/ 8ee	.
16c#/	.	.
16B/	8b/J) 8dd	.
16d/JJ	.	.
=22	=22	=22
8f#/L	8a#X/L 8cc#	.
8f#/	(8dd/ 8ff#	.
8f#/	8cc#/ 8ee	.
8f#/	8b/ 8dd	>
8f#/	(8b/) 8dd	.
8f#/J	8a#X/J) 8cc#	]]
=23	=23	=23
(16e/LL 16g	4r	p
16a/	.	.
16e/ 16g	.	.
16a/	.	.
16e/ 16g	8r	.
16a/	.	.
.	8qqaa#X/	.
16e/ 16g	8aa#\L	.
16a/	.	.
16e/ 16g	8aa#\	.
16a/	.	.
16e/ 16g	8aa#\J	.
16a/JJ)	.	.
=24	=24	=24
.	8qqccc#/	.
(16d/LL 16f#	4ddd\	.
16a/	.	.
16d/ 16f#	.	.
16a/	.	.
*	*clefF4	*
16d/ 16f#	16r	.
16a/	(16A\LL	.
16d/ 16f#	16B\	.
16a/	16A\JJ	.
16d/ 16f#	16G\LL	.
16a/	16F#\	.
16d/ 16f#	16E\)	.
16a/JJ)	16D\JJ	.
!!LO:PB:g=original
=25	=25	=25
(16e/LL 16g	4C#/	.
16a/	.	.
16e/ 16g	.	.
16a/	.	.
16e/ 16g	8r	.
16a/	.	.
16e/ 16g	8AA/L	.
16a/	.	.
16e/ 16g	8AA/	.
16a/	.	.
16e/ 16g	8AA/J	.
16a/JJ)	.	.
=26	=26	=26
.	8qqC#/	.
(16d/LL 16f#	4D/	.
16a/	.	.
16d/ 16f#	.	.
16a/	.	.
*	*clefG2	*
16d/ 16f#	16r	.
16a/	(16aa\LL	.
16d/ 16f#	16bb\	.
16a/	16aa\JJ	.
16d/ 16f#	16gg\LL	.
16a/	16ff#\)	.
16d/ 16f#	16ee\	.
16a/JJ)	16dd\JJ	.
=27	=27	=27
*Xtremolo	*	*
16e/LL 16g	8cc#\L	.
(16a/	.	.
.	8qgg#X/	.
16e/ 16g	8aa\J	.
16a/JJ	.	.
16d/LL 16f#	8dd\L	.
16a/	.	.
.	8qgg#/	.
16d/ 16f#	8aa\J	.
16a/JJ)	.	.
16c#/LL 16e	8ee\L	.
16a/	.	.
.	8qgg#/	<
16c#/ 16e	8aa\J	.
16a/JJ	.	.
=28	=28	=28
16d/LL 16f#	8ff#\L	.
16a/	.	.
16d/ 16f#	[8ddd\J	[
16a/JJ	.	.
!LO:TX:a:t=P:problem:mixed beam	!	!
8d/L 8f#	16ddd\LL]	.
.	16bb\	.
8e\J 8b 8dd	16aa\	.
.	16gg#X\JJ	.
!	!LO:TX:b:i:t=dal Segno	!
4a/ 4cc#	4aa\	f
*clefF4	*	*
!!LO:LB:g=original
==29	==29	==29
*k[f#]	*k[f#]	*
*tremolo	*	*
!	!LO:TX:a:i:t=Trio	!
!	!LO:TX:b:i:t=dolce	!
(8G\L 8B	8.gg\L	.
8d\	.	.
.	16dd\Jk	.
8G\ 8B	(16.gg\LL	.
.	32dd\K	.
8d\	16.bb\	.
.	32gg\JJk)	.
8G\ 8B	8ddd\L	.
8d\J)	8ddd\J	.
=30	=30	=30
(8F#\L 8A	16gg#X\LL	.
.	(16aa\	.
8d\	16eee\	.
.	16ddd\JJ	.
8F#\ 8A	4.ddd\)	.
8d\J	.	.
8G\L 8B	.	.
8d\J)	16bb\LL	.
.	16gg#\JJ	.
=31	=31	=31
(8A\L 8c	(16gg#X\LL	.
.	16aa\	.
8d\	16bb\	.
.	16aa\JJ	.
8A\ 8c	16ff#\LL)	.
.	16dd\	.
8d\J)	16ddd\	.
.	16dd\JJ	.
8G\L 8B	16gg#\LL	.
.	16dd\	.
8d\J	16ddd\	.
.	16dd\JJ	.
=32	=32	=32
8F#\L 8A	16aa\LL	.
.	16ddd\	.
8d\J	(16ccc#X\	.
.	16ddd\JJ	.
4D/	16ccc#\LL	.
.	16ddd\	.
.	16cccn\	.
.	16ddd\JJ	.
4r	16bb\LL	.
.	16ddd\	.
.	16aa\	.
.	16ddd\JJ)	.
!!LO:LB:g=original
=33	=33	=33
8GG\L 8G	8g\L 8b 8dd 8gg	.
16.GG\L 16.G	16.g\L 16.b 16.dd 16.gg	f
32GG\JJk 32G	32g\JJk 32b 32dd 32gg	.
8GG\L 8G	(8g\L 8b 8dd 8gg	.
8G\	8ee\ 8gg	p
8G\	8dd\ 8ff#	.
8G\J	8cc\J) 8ee	.
=34	=34	=34
!LO:TX:a:t=P:problem:mixed beam	!	!
8GG/L	8.b\L 8.dd#X	.
8G\	.	.
.	16cc\Jk 16ee	.
8G\	4cc\ 4ee	.
8G\	.	.
8G\	4r	.
8G\J	.	.
=35	=35	=35
16F#\LL	(16dd\LL	.
16d\	16cc\JJ	.
16A\	4cc\)	.
16d\JJ	.	.
*rep	*	*
16F#\LL	.	.
16d\	.	.
16A\	(16aa\LL	.
16d\JJ	16ff#\JJ	.
*Xrep	*	*
*rep	*	*
16F#\LL	16dd\LL	.
16d\	16cc\	.
16A\	16a\	.
16d\JJ	16cc\JJ)	.
*Xrep	*	*
=36	=36	=36
8G\L 8B	16b\LL	.
.	16dd\	.
8D\J 8A 8c	16cc\	.
.	16a\JJ	.
8r	(4f#/ 4a	.
8D\ 8A 8c	.	.
4G\ 4B	8g/)	.
.	8r	.
=37:|!|:	=37:|!|:	=37:|!|:
*Xtremolo	*	*
8F#\L 8A 8d	(16dd\LL	f
.	16cc#X\	.
8F#\ 8A 8d	16dd\	.
.	16cc#\JJ	.
8F#\ 8A 8d	16dd\LL	.
.	16cc#\	.
8F#\ 8A 8d	16dd\	.
.	16cc#\JJ	.
8F#\ 8A 8d	16dd\LL	.
.	16ccn\)	.
8F#\J 8A 8d	16b\	.
.	16a\JJ	.
=38	=38	=38
8G\ 8B 8d	8b\L	.
8r	16g\L	.
.	16g\JJ	.
8G\ 8B 8d	8dd\L	.
8r	16g\L	.
.	16g\JJ	.
8G\ 8B 8d	8gg\L	.
8r	16g\L	.
.	16g\JJ	.
!!LO:LB:g=original
=39	=39	=39
8D#X\L 8F# 8B	16bb\LL	.
.	16aa#X\	.
8D#\J 8F# 8B	(16bb\	.
.	16aa#\JJ	.
8D#\L 8F# 8B	16bb\LL	.
.	16aa#\	.
8D#\J 8F# 8B	16bb\	.
.	16aa#\JJ)	.
8D#\L 8F# 8B	16bb\LL	.
.	16aan\	.
8D#\J 8F# 8B	16gg\	.
.	16ff#\JJ	.
=40	=40	=40
8E\ 8G 8B	8gg\L	.
8r	16ee\L	.
.	16ee\JJ	.
8E\ 8G 8B	8bb\L	.
8r	16ee\L	.
.	16ee\JJ	.
8E\ 8G 8B	8eee\L	.
8r	16ee\L	.
.	16ee\JJ	.
*clefG2	*	*
=41	=41	=41
8r	(16aa\LL	p
.	16gg#X\	.
8d/ 8a 8cc	16aa\	.
!	!LO:TX:b:i:t=dolce	!
.	16gg#\JJ)	.
*tremolo	*	*
8d/L 8a 8cc	8aa\L	.
8d/ 8a 8cc	8aa\	.
8d/ 8a 8cc	8ff#\	.
8d/J 8a 8cc	8dd\J	.
=42	=42	=42
8r	(16gg\LL	.
.	16aa\	.
8d/ 8g 8b	16aa#X\	.
.	16bb\JJ)	.
8d/L 8g 8b	4.dd\	.
8d/ 8g 8b	.	.
8d/ 8g 8b	.	.
8d/J 8g 8b	8bb\	.
=43	=43	=43
8r	8ccc\	.
8d/L 8f# 8a	(4ccc\	.
8d/ 8f# 8a	.	.
8d/ 8f# 8a	16bb\LL	.
.	16aa\JJ)	.
8d/ 8g 8b	(16aa#X\LL	.
.	16bb\	.
8d/J 8g 8b	16aan\	.
.	16gg\JJ)	.
=44	=44	=44
!	!LO:TX:b:i:t=Trio da capo	!
8d/ 8a 8cc	8ddd\L	.
8r	16dd\L	.
.	16dd\JJ	.
8d/ 8g 8b	8ddd\L	.
8r	16dd\L	.
.	16dd\JJ	.
8d/ 8f# 8a	8ddd\L	.
8r	16dd\L	.
.	16dd\JJ	.
==	==	==
*-	*-	*-
!!!RDF**kern: > = above
!!!RDF**kern: < = below
!!!system-decoration: [(s1,s2)]
!!!ENC: Berenika Jozajtis
!!!END: 2022-07-27
!!!ENC: Urszula Świątek
!!!END: 2022-08-23
!!!YEC: Copyright 2022 Narodowy Instytut Fryderyka Chopina (https://polishscores.org)
!!!YEM: License CC-BY-4.0 (https://creativecommons.org/licenses/by/4.0)
